!!!SOCIAL_FUNCTION:	summer dances
!!!PDT:	1956
!!!OTL: No_194_Drunken_Dance_Song_(b).krn
!!!LANG: Non-Tone
!!!LING_GROUP: Muskogean
!!!REG: Florida
**kern
*staff1
=1-
*clefF4
*k[f#]
*M2/4
4G\
4r
=2
4G\
4r
=3
2G\
=4||
*M3/4
2G\
8E\L
8E\J
=5||
*M2/4
2G\
=6
2r
=7
4G\
8E\L
8E\J
=8||
*M3/4
2G\
8E\L
8E\J
=9||
*M2/4
4G\
8G\L
8G\J
=10||
*M3/4
2G\
8B\L
8B\J
=11||
*M2/4
4G\
8B\L
8B\J
=12
4G\
4r
=13
4r
8B\L
8B\J
=14
4G\
8B\L
8B\J
=15
2G\
=16
4r
8B\L
8B\J
=17
4G\
12G\L
12G\
12G\J
=18||
*M3/4
4G\
4r
12G\L
12G\
12G\J
=19||
*M2/4
4G\
12G\L
12G\
12G\J
=20
2G\
=21
4r
8G\L
8G\J
=22
4G\
8G\L
8G\J
=23||
*M3/4
16G\LK
[8.G\J
4G\]
4r
=24
8G\L
8G\J
8G\L
8G\J
8G\L
8B\J
=25||
*M2/4
16B\LK
8.G\J
4G\
=26||
*M3/4
8G\L
8B\J
8B\L
8G\J
8G\L
8B\J
=27
16B\LK
8.G\J
4G\
4r
=28
8G\L
8B\J
8B\L
8G\J
8G\L
8B\J
=29
16B\LK
[8.G\J
4G\]
4r
=30
8G\L
8B\J
8B\L
8G\J
8B\L
8B\J
=31
2.B\
=32||
*M2/4
4r
4c\
=33
4.B\
8B\
=34
4B\
8B\L
8G\J
=35
4B\
4r
=36
4B\
8G\L
8G\J
=37||
*M3/4
8B\L
8B\J
4G\
4r
=38
8G\L
8B\J
8B\L
8G\J
8G\L
8B\J
=39
8B\L
[8G\J
2G\]
==
*-
